!!!COM: des Prez, Josquin
!!!CDT: ~1450-1521/08/27
!!!OTL@@LAT: Nardi Maria pistici [v. 2: Honor decus imperium]
!!!AGN: Motet; Hymn
!!!SCT: NJE 26.7
!!!SCA: New Josquin Edition 26.7
!!!voices: 4
**kern	**text	**kern	**text	**kern	**text	**kern	**text
*staff4	*	*staff3	*	*staff2	*	*staff1	*
*Ivox	*	*Ivox	*	*Ivox	*	*Ivox	*
*I"Bassus	*	*I"Tenor	*	*I"Altus	*	*I"Superius	*
*I'B	*	*I'T	*	*I'A	*	*I'S	*
*>Part2[B]	*	*>Part2[B]	*	*>Part2[B]	*	*>Part2[B]	*
*clefF4	*	*clefGv2	*	*clefGv2	*	*clefG2	*
*k[b-]	*	*k[]	*	*k[b-]	*	*k[]	*
*M3/1	*	*M3/1	*	*M3/1	*	*M3/1	*
*met(O)	*	*met(O)	*	*met(O)	*	*met(O)	*
*>B	*	*>B	*	*>B	*	*>B	*
=1-	=1	=1-	=1	=1-	=1	=1-	=1
1F	Ho-	1r	.	1r	.	0.r	.
0A	-nor	1r	.	1F	Ho-	.	.
.	.	1F	Ho-	[1A	-nor	.	.
=2	=2	=2	=2	=2	=2	=2	=2
[0.D	de-	0A	-nor	1A]	.	1f	Ho-
.	.	.	.	1F	de-	0a	-nor
.	.	1F	de-	[1f	-cus	.	.
=3	=3	=3	=3	=3	=3	=3	=3
1D]	.	2.A/	-cus	2f\]	.	1f	de-
.	.	.	.	2d\	.	.	.
.	.	4B\	.	.	.	.	.
1C	-cus	1c	im-	1e	im-	2a/	-cus
.	.	.	.	.	.	2g/	.
1BB-	.	1d	.	2.f\	-pe-	[1b-i	im-
.	.	.	.	4e\	.	.	.
=4	=4	=4	=4	=4	=4	=4	=4
2r	.	2B-i\	-pe-	2d\	.	2b-\]	.
2F\	im-	2c\	.	2c\	.	2.a/	-pe-
2G\	-pe-	1G	-ri-	2B-\	-ri-	.	.
.	.	.	.	.	.	4g/	.
2E\	.	.	.	2c\	.	1g	.
1D	-ri-	1A	.	1d	-um,	.	.
.	.	.	.	.	.	2f#i/	-ri-
=5	=5	=5	=5	=5	=5	=5	=5
0E-	-um,	1.G	-um,	1r	.	0g	-um,
.	.	.	.	0G	sit	.	.
.	.	1B-i	sit	.	.	.	.
1E-i	sit	.	.	.	.	1r	.
.	.	2c\	.	.	.	.	.
=6	=6	=6	=6	=6	=6	=6	=6
1D	tri-	1d	.	1A	tri-	1f	sit
1C	.	1e-i	.	1.c	-ni-	1g	.
1F	-ni-	1c	tri-	.	.	1a	tri-
.	.	.	.	[2f\	-ta-	.	.
=7	=7	=7	=7	=7	=7	=7	=7
2.B-\	-ta-	1d	-ni-	4f\]	.	1f	-ni-
.	.	.	.	4e\	.	.	.
.	.	.	.	4d\	.	.	.
4A\	.	.	.	4c\	.	.	.
2G\	.	2e\	-ta-	2B-\	.	2g/	-ta-
2F\	.	1f	.	2c\	.	2.a/	.
1D	.	.	.	2d\	.	.	.
.	.	.	.	.	.	4g/	.
.	.	2d\	.	2f\	.	4a/	.
.	.	.	.	.	.	4b\	.
=8	=8	=8	=8	=8	=8	=8	=8
1A	-ti	2e\	-ti	2e\	-ti	2cc\	-ti
.	.	2c\	u-	2.a\	u-	2.ee\	u-
1B-	u-	1d	.	.	.	.	.
.	.	.	.	4f\	.	4dd\	.
.	.	.	.	2g\	.	1dd	.
1A	-ni-	1e	-ni-	1a	-ni-	.	.
.	.	.	.	.	.	2cc#i\	-ni-
=9	=9	=9	=9	=9	=9	=9	=9
2.B-\	-ce,	1d	-ce,	2f\	-ce,	0.dd	-ce,
.	.	.	.	1B-	.	.	.
4A\	.	.	.	.	.	.	.
2G\	.	1r	.	.	.	.	.
2F\	.	.	.	2A/	.	.	.
2G\	.	1d	Pa-	2B-\	.	.	.
4F\	.	.	.	4A/	.	.	.
4E\	.	.	.	4G/	.	.	.
=10	=10	=10	=10	=10	=10	=10	=10
1D	.	1d	-tri	2A/	.	1r	.
.	.	.	.	2.B-\	.	.	.
1C	.	1e-	.	.	.	1r	.
.	.	.	.	4G/	.	.	.
.	.	.	.	2A/	.	.	.
[1BB-	.	[1d	.	[1B-	.	1dd	Pa-
=11	=11	=11	=11	=11	=11	=11	=11
1BB-]	.	1d]	.	1B-]	.	1dd	-tri
1C	.	1c	na-	2r	.	1ee-i	.
.	.	.	.	2.G/	Pa-	.	.
2r	.	1B-i	-to	.	.	1dd	.
.	.	.	.	4A/	.	.	.
2G\	Pa-	.	.	2B-\	.	.	.
=12	=12	=12	=12	=12	=12	=12	=12
2A\	-tri	1.A	pa-	2c\	-tri	1cc	na-
1F	na-	.	.	1f	na-	.	.
.	.	.	.	.	.	2cc\	-to
2G\	.	2G/	-ra-	2d\	.	2b-i\	.
2.F\	-to	2A/	-cli-	1f	-to	1a	pa-
.	.	[2c\	.	.	.	.	.
4E\	.	.	.	.	.	.	.
=13	=13	=13	=13	=13	=13	=13	=13
1C	.	2c\]	.	2e\	pa-	1.g	-ra-
.	.	4B-i\	.	4d\	.	.	.
.	.	4A/	.	4c\	.	.	.
1r	.	2B-i\	.	2d\	-ra-	.	.
.	.	2c\	.	2e\	-cli-	2.a/	-cli-
2r	.	2d\	.	2f\	.	.	.
.	.	.	.	.	.	4f/	.
2C/	pa-	2e-i\	.	2g\	.	4g/	.
.	.	.	.	.	.	4a/	.
=14	=14	=14	=14	=14	=14	=14	=14
2.D\	.	1d	.	1.f	.	2b-i\	.
.	.	.	.	.	.	2.a/	.
4E\	.	.	.	.	.	.	.
2F\	.	2c\	.	.	.	.	.
.	.	.	.	.	.	4g/	.
2G\	-ra-	2B-i\	.	1.d	.	1g	.
1D	-cli-	1A	.	.	.	.	.
.	.	.	.	.	.	2f#i/	.
=15	=15	=15	=15	=15	=15	=15	=15
1d	-to,	0G	-to,	1.B-	-to,	0.g	-to,
1r	.	.	.	.	.	.	.
.	.	.	.	4A/	.	.	.
.	.	.	.	4G/	.	.	.
1G	per	1r	.	2.d\	.	.	.
.	.	.	.	4e\	.	.	.
=16	=16	=16	=16	=16	=16	=16	=16
0A	.	1F	per	1f	.	1r	.
.	.	0A	in-	1c	per	1r	.
[1D	in-	.	.	1d	.	1f	per
=17	=17	=17	=17	=17	=17	=17	=17
2D\]	.	1F	-fi-	3%2dV	in-	1.a	.
2.F\	-fi-	.	.	.	.	.	.
.	.	.	.	3c\Z	-fi-	.	.
.	.	2c\	-ni-	3%2AV	-ni-	.	.
4E\	.	.	.	.	.	.	.
2D\	-ni-	2d\	.	.	.	2f/	in-
.	.	.	.	3B-Z	.	.	.
1C	-ta	1e-i	-ta	3c\V	-ta	2.g/	-fi-
.	.	.	.	3%2gZ	.	.	.
.	.	.	.	.	.	4a/	-ni-
=18	=18	=18	=18	=18	=18	=18	=18
1D	se-	1d	se-	3%2fV	se-	2b-i\	-ta
.	.	.	.	.	.	2.a/	se-
.	.	.	.	3d\Z	.	.	.
1E-i	.	1G	-cu-	3B-V	.	.	.
.	.	.	.	.	.	4g/	.
.	.	.	.	3%2cZ	-cu-	.	.
.	.	.	.	.	.	1g	.
1D	-cu-	1A	.	[1dl	-la.	.	.
.	.	.	.	.	.	2f#i/	-cu-
=19	=19	=19	=19	=19	=19	=19	=19
0.Gl	-la.	0.Gl	-la.	0.d]	.	0.gl	-la.
==	==	==	==	==	==	==	==
*-	*-	*-	*-	*-	*-	*-	*-
!!!RDF**kern: %=rational rhythm
!!!rscale-alt: 1/2
!!!RDF**kern: V=start of tuplet marker
!!!RDF**kern: Z=end of tuplet marker
!!!RDF**kern: l=long note in original notation
!!!RDF**kern: i=editorial accidental
!!!ENC: Jesse Rodin; Victoria Chang 2011/05/10
!!!END: 2011/04/06/
!!!SMS: VatS 15
!!!SMS: Smjiers Supplement, No. 2. pp. 7-8.
!!!EED: Jesse Rodin
!!!EEV: 2011/08/05/
!!attribution-level@Jos: 1 (secure, core group [checkmark])
!!!ONB: Translated from MusicXML and edited on 2011/08/05/ by Craig Sapp
!!muse2ps: u^Hymn^C^@{COM}\n@{SCT}^i2I150v90,90,90,120c105z18l2700t130
